src/assets/img/dashboard/mia_token.svg

<svg fill="none" height="24" viewBox="0 0 25 24" width="25" xmlns="http://www.w3.org/2000/svg" xmlns:xlink="http://www.w3.org/1999/xlink"><linearGradient id="a" gradientUnits="userSpaceOnUse" x1="23.1126" x2="9.80137" y1="13.1516" y2="23.8006"><stop offset="0" stop-color="#7da7c3"/><stop offset=".479167" stop-color="#b3a7cc"/><stop offset="1" stop-color="#b7c5da"/></linearGradient><linearGradient id="b" gradientUnits="userSpaceOnUse" x1="17.9867" x2="22.3973" y1="3.81385" y2="13.6682"><stop offset="0" stop-color="#7b9db7"/><stop offset="1" stop-color="#7a9fb8"/></linearGradient><mask id="c" height="24" maskUnits="userSpaceOnUse" width="25" x="0" y="0"><circle cx="12.0259" cy="12" fill="#f00" r="12"/></mask><g mask="url(#c)"><path d="m7.81489 22.5689c-.28609.0636-1.23179.2119-1.66887.2781-.85828-.6675-2.22517-2.9404-2.74172-5.4437l.87417.3974 4.72847 3.6556v.7152c-.27814.106-.90596.3338-1.19205.3974z" fill="#6a9abf"/><path d="m16.1182.277701c.3815.50861 1.2451 2.410599 1.6292 3.298019l-14.82121 11.99998c.25166 1.1788.83444 2.9007 1.58941 4.3709.65294 1.2715 1.76158 2.4371 2.30463 3.0993l-2.30463-1.1523-5.046362-4.1325v-7.5894l1.748342-7.47016 6.63576-4.13245c2.59606.35762 7.88346 1.200002 8.26486 1.708611z" fill="#a34f93"/><path d="m17.9079 4.25103c-.1272-.44503-1.2715-2.75496-1.8278-3.854301 1.1391.172185 3.7589.739071 5.1258 1.629141 1.3669.89006 2.3709 4.47682 2.702 6.15894-1.8755-2.22517-4.9669-4.21192-5.6821-4.09272-.053.23841-.1908.60398-.3179.15894z" fill="#c5728a"/><path d="m8.56958 23.6417.47682-2.2649 2.3046-.159 8.2252-3.8146 2.3046-5.5629 2.3841 2.106.1987.5563-1.9867 5.6424-4.3312 3.8145-7.0728.5563z" fill="url(#a)"/><path d="m17.4304 3.57544c1.5258.12715 4.1325 2.06622 6.0795 3.89404.9218 1.17616.8609 4.88742.7152 6.59602l-2.1059-1.8675z" fill="url(#b)"/><path d="m8.99237 21.814-.35761 1.9867c-1.24504-.4768-3.45696-1.3828-2.34438-1.192 1.11259.1907 2.26491-.4504 2.70199-.7947z" fill="#73a7bf"/></g><ellipse cx="12.0262" cy="12.0006" fill="#000" rx="10.1722" ry="10.1722"/><g fill="#fff"><path d="m10.7325 9.33276v5.33334h-1.29913v-3.1985l-1.19278 3.1985h-1.04844l-1.20038-3.2061v3.2061h-1.29914v-5.33334h1.53466l1.49668 3.69234 1.48148-3.69234z"/><path d="m12.9659 9.33276v5.33334h-1.2992v-5.33334z"/><path d="m17.2274 13.724h-1.9905l-.3191.9421h-1.3599l1.9297-5.33334h1.5043l1.9297 5.33334h-1.3751zm-.3343-1.0028-.6609-1.9525-.6534 1.9525z"/></g></svg>

<svg width="25" height="24" viewBox="0 0 25 24" fill="none" xmlns="http://www.w3.org/2000/svg">
<mask id="mask0_3409_12048" style="mask-type:alpha" maskUnits="userSpaceOnUse" x="0" y="0" width="25" height="24">
<circle cx="12.0259" cy="12" r="12" fill="#FF0000"/>
</mask>
<g mask="url(#mask0_3409_12048)">
<path d="M7.81489 22.5689C7.5288 22.6325 6.5831 22.7808 6.14602 22.847C5.28774 22.1795 3.92085 19.9066 3.4043 17.4033L4.27847 17.8007L9.00694 21.4563V22.1715C8.7288 22.2775 8.10098 22.5053 7.81489 22.5689Z" fill="#6A9ABF"/>
<path d="M16.1182 0.277701C16.4997 0.786311 17.3633 2.6883 17.7474 3.57572L2.92619 15.5757C3.17785 16.7545 3.76063 18.4764 4.5156 19.9466C5.16854 21.2181 6.27718 22.3837 6.82023 23.0459L4.5156 21.8936L-0.530762 17.7611V10.1717L1.21758 2.70154L7.85334 -1.43091C10.4494 -1.07329 15.7368 -0.230908 16.1182 0.277701Z" fill="#A34F93"/>
<path d="M17.9079 4.25103C17.7807 3.806 16.6364 1.49607 16.0801 0.396729C17.2192 0.568914 19.839 1.1358 21.2059 2.02587C22.5728 2.91593 23.5768 6.50269 23.9079 8.18481C22.0324 5.95964 18.941 3.97289 18.2258 4.09209C18.1728 4.3305 18.035 4.69607 17.9079 4.25103Z" fill="#C5728A"/>
<path d="M8.56958 23.6417L9.0464 21.3768L11.351 21.2178L19.5762 17.4032L21.8808 11.8403L24.2649 13.9463L24.4636 14.5026L22.4769 20.145L18.1457 23.9595L11.0729 24.5158L8.56958 23.6417Z" fill="url(#paint0_linear_3409_12048)"/>
<path d="M17.4304 3.57544C18.9562 3.70259 21.5629 5.64166 23.5099 7.46948C24.4317 8.64564 24.3708 12.3569 24.2251 14.0655L22.1192 12.198L17.4304 3.57544Z" fill="url(#paint1_linear_3409_12048)"/>
<path d="M8.99237 21.814L8.63476 23.8007C7.38972 23.3239 5.1778 22.4179 6.29038 22.6087C7.40297 22.7994 8.55529 22.1583 8.99237 21.814Z" fill="#73A7BF"/>
</g>
<ellipse cx="12.0262" cy="12.0006" rx="10.1722" ry="10.1722" fill="black"/>
<path d="M10.7325 9.33276V14.6661H9.43337V11.4676L8.24059 14.6661H7.19215L5.99177 11.46V14.6661H4.69263V9.33276H6.22729L7.72397 13.0251L9.20545 9.33276H10.7325Z" fill="white"/>
<path d="M12.9659 9.33276V14.6661H11.6667V9.33276H12.9659Z" fill="white"/>
<path d="M17.2274 13.724H15.2369L14.9178 14.6661H13.5579L15.4876 9.33276H16.9919L18.9216 14.6661H17.5465L17.2274 13.724ZM16.8931 12.7212L16.2322 10.7687L15.5788 12.7212H16.8931Z" fill="white"/>
<defs>
<linearGradient id="paint0_linear_3409_12048" x1="23.1126" y1="13.1516" x2="9.80137" y2="23.8006" gradientUnits="userSpaceOnUse">
<stop stop-color="#7DA7C3"/>
<stop offset="0.479167" stop-color="#B3A7CC"/>
<stop offset="1" stop-color="#B7C5DA"/>
</linearGradient>
<linearGradient id="paint1_linear_3409_12048" x1="17.9867" y1="3.81385" x2="22.3973" y2="13.6682" gradientUnits="userSpaceOnUse">
<stop stop-color="#7B9DB7"/>
<stop offset="1" stop-color="#7A9FB8"/>
</linearGradient>
</defs>
</svg>
